svg/rancher.svg

<?xml version="1.0" encoding="UTF-8"?>
<svg xmlns="http://www.w3.org/2000/svg" xmlns:xlink="http://www.w3.org/1999/xlink" width="72.164001" height="32" viewBox="0 0 72.164001 32">
<path fill-rule="nonzero" fill="rgb(0%, 45.882353%, 65.882353%)" fill-opacity="1" d="M 68.230469 7.03125 L 67.484375 2.59375 C 67.246094 1.160156 66.679688 0 66.265625 0 C 65.816406 0 65.460938 1.191406 65.460938 2.621094 L 65.460938 3.785156 C 65.449219 5.226562 64.28125 6.394531 62.839844 6.40625 L 61.4375 6.40625 L 61.4375 9.59375 L 66.054688 9.59375 C 67.484375 9.59375 68.46875 8.433594 68.230469 7.03125 M 57.773438 3.277344 L 43.261719 3.277344 C 43.171875 3.277344 43.082031 3.277344 43.023438 3.308594 L 43.023438 2.621094 C 43.023438 1.191406 42.667969 0 42.21875 0 C 41.773438 0 41.238281 1.160156 41 2.59375 L 40.253906 7.03125 C 40.015625 8.460938 41 9.625 42.457031 9.625 L 46.808594 9.625 C 47.230469 9.625 47.652344 9.5625 48.058594 9.445312 C 47.910156 10.191406 47.285156 10.757812 46.480469 10.757812 L 40.371094 10.757812 C 39.390625 10.757812 38.644531 9.863281 38.792969 8.875 L 39.417969 5.15625 C 39.566406 4.171875 38.824219 3.277344 37.839844 3.277344 L 7.390625 3.277344 C 6.734375 3.277344 6.199219 3.664062 5.929688 4.230469 L 0.207031 12.960938 C 0.113281 13.109375 0.125 13.300781 0.238281 13.4375 L 1.339844 14.75 C 1.488281 14.925781 1.726562 14.925781 1.90625 14.808594 L 5.808594 11.738281 L 5.808594 30.390625 C 5.808594 30.816406 5.976562 31.226562 6.277344 31.53125 C 6.582031 31.832031 6.992188 32 7.417969 32 L 16.058594 32 C 16.484375 32 16.894531 31.832031 17.199219 31.53125 C 17.5 31.226562 17.671875 30.816406 17.667969 30.390625 L 17.667969 23.894531 C 17.667969 23.464844 17.835938 23.054688 18.136719 22.753906 C 18.4375 22.449219 18.851562 22.28125 19.277344 22.285156 L 40.847656 22.285156 C 41.277344 22.28125 41.6875 22.453125 41.988281 22.753906 C 42.289062 23.054688 42.460938 23.464844 42.457031 23.894531 L 42.457031 30.390625 C 42.457031 30.816406 42.625 31.226562 42.925781 31.53125 C 43.230469 31.832031 43.640625 32 44.066406 32 L 52.707031 32 C 53.132812 32 53.546875 31.832031 53.847656 31.53125 C 54.148438 31.226562 54.320312 30.816406 54.316406 30.390625 L 54.316406 23.417969 L 49.726562 23.417969 C 48.296875 23.417969 47.105469 22.226562 47.105469 20.796875 L 47.105469 16.296875 C 47.105469 15.433594 47.523438 14.6875 48.148438 14.210938 L 48.148438 19.574219 C 48.148438 21.003906 49.339844 22.199219 50.769531 22.199219 L 57.832031 22.199219 C 59.261719 22.199219 60.453125 21.003906 60.453125 19.574219 L 60.453125 5.929688 C 60.394531 4.441406 59.234375 3.277344 57.773438 3.277344 M 68.707031 1.667969 C 68.707031 0.507812 69.570312 0 70.375 0 C 71.179688 0 72.042969 0.507812 72.042969 1.667969 C 72.042969 2.800781 71.179688 3.308594 70.375 3.308594 C 69.570312 3.308594 68.707031 2.800781 68.707031 1.667969 M 71.65625 1.667969 C 71.65625 0.746094 71.0625 0.359375 70.40625 0.359375 C 69.75 0.359375 69.125 0.746094 69.125 1.667969 C 69.125 2.5625 69.75 2.980469 70.40625 2.980469 C 71.0625 2.949219 71.65625 2.5625 71.65625 1.667969 M 69.839844 0.835938 L 70.4375 0.835938 C 70.734375 0.835938 71.03125 0.921875 71.03125 1.339844 C 71.03125 1.578125 70.851562 1.726562 70.644531 1.789062 L 71.03125 2.472656 L 70.675781 2.472656 L 70.316406 1.816406 L 70.167969 1.816406 L 70.167969 2.472656 L 69.839844 2.472656 Z M 70.4375 1.578125 C 70.585938 1.578125 70.703125 1.488281 70.703125 1.339844 C 70.703125 1.160156 70.554688 1.132812 70.4375 1.132812 L 70.136719 1.132812 L 70.136719 1.578125 Z M 70.4375 1.578125 "/>
</svg>

<svg role="img" viewBox="0 0 72.164 32" height="32" width="72.164" xmlns="http://www.w3.org/2000/svg"><path d="m68.23 7.031-.746-4.437C67.246 1.16 66.68 0 66.266 0c-.45 0-.805 1.191-.805 2.621v1.164a2.644 2.644 0 0 1-2.621 2.621h-1.403v3.188h4.618c1.43 0 2.414-1.16 2.175-2.563M57.773 3.277H43.262c-.09 0-.18 0-.239.032V2.62c0-1.43-.355-2.621-.804-2.621-.446 0-.98 1.16-1.219 2.594l-.746 4.437c-.238 1.43.746 2.594 2.203 2.594h4.352c.421 0 .843-.062 1.25-.18-.149.746-.774 1.313-1.579 1.313h-6.109c-.98 0-1.726-.895-1.578-1.883l.625-3.719c.148-.984-.594-1.879-1.578-1.879H7.39c-.656 0-1.19.387-1.46.953L.207 12.96a.406.406 0 0 0 .031.477L1.34 14.75c.148.176.387.176.566.059l3.903-3.07V30.39c0 .425.168.836.468 1.14.305.301.715.469 1.141.469h8.64c.426 0 .837-.168 1.141-.469.301-.304.473-.715.469-1.14v-6.496c0-.43.168-.84.469-1.141.3-.305.715-.473 1.14-.469h21.57c.43-.004.84.168 1.141.469.301.3.473.71.469 1.14v6.497c0 .425.168.836.469 1.14.304.301.715.469 1.14.469h8.641c.426 0 .84-.168 1.14-.469.301-.304.47-.715.47-1.14v-6.973h-4.59c-1.43 0-2.622-1.191-2.622-2.621v-4.5c0-.863.418-1.61 1.043-2.086v5.363c0 1.43 1.192 2.625 2.622 2.625h7.062c1.43 0 2.621-1.195 2.621-2.625V5.93c-.058-1.489-1.219-2.653-2.68-2.653m10.934-1.609C68.707.508 69.57 0 70.375 0c.805 0 1.668.508 1.668 1.668 0 1.133-.863 1.64-1.668 1.64-.805 0-1.668-.507-1.668-1.64m2.95 0c0-.922-.594-1.309-1.25-1.309-.657 0-1.282.387-1.282 1.309 0 .895.625 1.312 1.281 1.312.656-.03 1.25-.417 1.25-1.312M69.84.836h.597c.297 0 .594.086.594.504 0 .238-.18.387-.386.45l.386.683h-.355l-.36-.657h-.148v.657h-.328Zm.597.742c.149 0 .266-.09.266-.238 0-.18-.148-.207-.266-.207h-.3v.445Zm0 0" fill="rgb(0%, 45.882353%, 65.882353%)"/></svg>
